rospo-icon-theme-classic-common/24x24/apps/ocsstore.svg

<svg height="24" viewBox="0 0 24 24" width="24" xmlns="http://www.w3.org/2000/svg"><path d="m12 2a10 10 0 0 0 -10 10 10 10 0 0 0 10 10 10 10 0 0 0 10-10 10 10 0 0 0 -10-10z" fill="#144379"/><path d="m12 5.5c-1.682541.0028315-3.3077697.611599-4.578125 1.7148438l1.5664062 1.5664062c.2975221-.1751843.6400932-.28125 1.0117188-.28125h4c .371626 0 .714197.1060657 1.011719.28125l1.568359-1.5683594c-1.271144-1.1029779-2.897115-1.7110705-4.580078-1.7128906zm-5.2871094 2.4199219c-1.1029779 1.2711437-1.7110705 2.8971151-1.7128906 4.5800781.00283 1.682541.611599 3.30777 1.7148438 4.578125l1.2851562-1.285156v-1.292969-4c0-.371626.1060657-.7141967.28125-1.0117188zm10.5722654.0019531-1.566406 1.5664062c.175184.2975221.28125.6400928.28125 1.0117188v4c0 .371626-.106066.714197-.28125 1.011719l1.568359 1.568359c1.102978-1.271144 1.711071-2.897115 1.712891-4.580078-.002832-1.682541-.611599-3.3077697-1.714844-4.578125zm-2.273437 8.296875c-.297522.175185-.640093.28125-1.011719.28125h-4l-1.9941406 1.736328c1.1671344.815035 2.5589126 1.261284 3.9941406 1.263672 1.682963-.0018 3.308934-.609913 4.580078-1.712891zm-7.011719.988281-.578125.578125c.184938.16061.3790631.307958.578125.447266z" opacity=".2"/><path d="m2.01075 12.209a10 10 0 0 0 -.01075.291 10 10 0 0 0 10 10 10 10 0 0 0 10-10 10 10 0 0 0 -.0105-.209 10 10 0 0 1 -9.9895 9.709 10 10 0 0 1 -9.989-9.791z" opacity=".2"/><path d="m12 2a10 10 0 0 0 -10 10 10 10 0 0 0  .01075.209 10 10 0 0 1 9.989-9.709 10 10 0 0 1 9.9895 9.791 10 10 0 0 0  .0105-.291 10 10 0 0 0 -10-10z" fill="#fff" opacity=".1"/><path d="m12 5c-1.682541.0028315-3.3077697.611599-4.578125 1.7148438l1.5664062 1.5664062c.297522-.1751843.6400932-.28125 1.0117188-.28125h4c .371626 0 .714197.1060657 1.011719.28125l1.568359-1.5683594c-1.271144-1.1029779-2.897115-1.7110705-4.580078-1.7128906z" fill="#00cea5"/><path d="m6.7128906 7.4199219c-1.1029779 1.2711437-1.7110705 2.8971151-1.7128906 4.5800781.00283 1.682541.611599 3.30777 1.7148438 4.578125l1.2851562-1.285156v-1.292969-4c0-.3716256.1060657-.7141967.28125-1.0117188z" fill="#d152ac"/><path d="m17.285156 7.421875-1.566406 1.5664062c.175184.297522.28125.6400932.28125 1.0117188v4c0 .371626-.106066.714197-.28125 1.011719l1.568359 1.568359c1.102978-1.271144 1.711071-2.897115 1.712891-4.580078-.002832-1.682541-.611599-3.3077697-1.714844-4.578125z" fill="#d75950"/><path d="m15.011719 15.71875c-.297522.175185-.640093.28125-1.011719.28125h-4l-1.9941406 1.736328c1.1671344.815035 2.5589126 1.261284 3.9941406 1.263672 1.682963-.00182 3.308934-.609913 4.580078-1.712891zm-7.011719.988281-.578125.578125c.184938.16061.3790631.307958.578125.447266z" fill="#e88a19"/><path d="m12 5c-1.682541.0028315-3.3077697.611599-4.578125 1.7148438l.2792969.2792968c1.225711-.9595283 2.7354341-1.4915096 4.2988281-1.4941406 1.563786.0016912 3.074345.5329606 4.300781 1.4921875l.279297-.2792969c-1.271144-1.1029779-2.897115-1.7110705-4.580078-1.7128906zm-5.2871094 2.4199219c-1.1029779 1.2711437-1.7110705 2.8971151-1.7128906 4.5800781.0001411.083866.0085806.166456.0117188.25.0588926-1.592975.6531714-3.122294 1.7011718-4.3300781l1.4179688 1.4179687c.0437275-.1198122.0864527-.2410212.1503906-.3496094zm10.5722654.0019531-1.566406 1.5664062c.063938.1085882.106663.2297972.150391.3496094l1.416015-1.4160156c1.048254 1.207035 1.643303 2.735581 1.703125 4.328125.00309-.083567.011628-.166113.011719-.25-.002832-1.682541-.611599-3.3077697-1.714844-4.578125zm-1.285156 6.578125c0 .371626-.106066.714197-.28125 1.011719l.150391.15039c.076082-.208462.130859-.426117.130859-.662109zm-.988281 1.71875c-.297522.175185-.640093.28125-1.011719.28125h-4l-1.9941406 1.736328c.1092221.076272.2287886.133374.3417968.203125l1.6523438-1.439453h4c .371626 0 .714197-.106065 1.011719-.28125l1.289062 1.289062c.093467-.073103.189283-.142597.279297-.220703zm-7.011719.988281-.578125.578125c.0901496.078291.1872267.146157.28125.21875l.296875-.296875z" fill="#fff" opacity=".2"/></svg>

<svg xmlns="http://www.w3.org/2000/svg" width="24" height="24" version="1.1" viewBox="0 0 24 24">
 <path style="fill:#144379" d="M 12,2 A 10,10 0 0 0 2,12 10,10 0 0 0 12,22 10,10 0 0 0 22,12 10,10 0 0 0 12,2 Z"/>
 <path style="opacity:0.2" d="M 12,5.5 C 10.317459,5.5028315 8.6922303,6.111599 7.421875,7.2148438 L 8.9882812,8.78125 C 9.2858033,8.6060657 9.6283744,8.5 10,8.5 l 4,0 c 0.371626,0 0.714197,0.1060657 1.011719,0.28125 L 16.580078,7.2128906 C 15.308934,6.1099127 13.682963,5.5018201 12,5.5 Z M 6.7128906,7.9199219 C 5.6099127,9.1910656 5.0018201,10.817037 5,12.5 c 0.00283,1.682541 0.611599,3.30777 1.7148438,4.578125 L 8,15.792969 8,14.5 8,10.5 C 8,10.128374 8.1060657,9.7858033 8.28125,9.4882812 L 6.7128906,7.9199219 Z M 17.285156,7.921875 15.71875,9.4882812 C 15.893934,9.7858033 16,10.128374 16,10.5 l 0,4 c 0,0.371626 -0.106066,0.714197 -0.28125,1.011719 l 1.568359,1.568359 C 18.390087,15.808934 18.99818,14.182963 19,12.5 18.997168,10.817459 18.388401,9.1922303 17.285156,7.921875 Z M 15.011719,16.21875 C 14.714197,16.393935 14.371626,16.5 14,16.5 l -4,0 -1.9941406,1.736328 C 9.1729938,19.051363 10.564772,19.497612 12,19.5 c 1.682963,-0.0018 3.308934,-0.609913 4.580078,-1.712891 L 15.011719,16.21875 Z M 8,17.207031 7.421875,17.785156 C 7.606813,17.945766 7.8009381,18.093114 8,18.232422 l 0,-1.025391 z"/>
 <path style="opacity:0.2" d="M 2.01075,12.209 A 10,10 0 0 0 2,12.5 10,10 0 0 0 12,22.5 10,10 0 0 0 22,12.5 10,10 0 0 0 21.9895,12.291 10,10 0 0 1 12,22 10,10 0 0 1 2.011,12.209 Z"/>
 <path style="opacity:0.1;fill:#ffffff" d="m 12,2 a 10,10 0 0 0 -10,10 10,10 0 0 0 0.01075,0.209 10,10 0 0 1 9.989,-9.709 10,10 0 0 1 9.9895,9.791 10,10 0 0 0 0.0105,-0.291 10,10 0 0 0 -10,-10 z"/>
 <path style="fill:#00cea5" d="M 12,5 C 10.317459,5.0028315 8.6922303,5.611599 7.421875,6.7148438 L 8.9882812,8.28125 C 9.2858032,8.1060657 9.6283744,8 10,8 l 4,0 c 0.371626,0 0.714197,0.1060657 1.011719,0.28125 L 16.580078,6.7128906 C 15.308934,5.6099127 13.682963,5.0018201 12,5 Z"/>
 <path style="fill:#d152ac" d="M 6.7128906 7.4199219 C 5.6099127 8.6910656 5.0018201 10.317037 5 12 C 5.00283 13.682541 5.611599 15.30777 6.7148438 16.578125 L 8 15.292969 L 8 14 L 8 10 C 8 9.6283744 8.1060657 9.2858033 8.28125 8.9882812 L 6.7128906 7.4199219 z"/>
 <path style="fill:#d75950" d="M 17.285156,7.421875 15.71875,8.9882812 C 15.893934,9.2858032 16,9.6283744 16,10 l 0,4 c 0,0.371626 -0.106066,0.714197 -0.28125,1.011719 l 1.568359,1.568359 C 18.390087,15.308934 18.99818,13.682963 19,12 18.997168,10.317459 18.388401,8.6922303 17.285156,7.421875 Z"/>
 <path style="fill:#e88a19" d="M 15.011719 15.71875 C 14.714197 15.893935 14.371626 16 14 16 L 10 16 L 8.0058594 17.736328 C 9.1729938 18.551363 10.564772 18.997612 12 19 C 13.682963 18.99818 15.308934 18.390087 16.580078 17.287109 L 15.011719 15.71875 z M 8 16.707031 L 7.421875 17.285156 C 7.606813 17.445766 7.8009381 17.593114 8 17.732422 L 8 16.707031 z"/>
 <path style="fill:#ffffff;opacity:0.2" d="M 12 5 C 10.317459 5.0028315 8.6922303 5.611599 7.421875 6.7148438 L 7.7011719 6.9941406 C 8.9268829 6.0346123 10.436606 5.502631 12 5.5 C 13.563786 5.5016912 15.074345 6.0329606 16.300781 6.9921875 L 16.580078 6.7128906 C 15.308934 5.6099127 13.682963 5.0018201 12 5 z M 6.7128906 7.4199219 C 5.6099127 8.6910656 5.0018201 10.317037 5 12 C 5.0001411 12.083866 5.0085806 12.166456 5.0117188 12.25 C 5.0706114 10.657025 5.6648902 9.127706 6.7128906 7.9199219 L 8.1308594 9.3378906 C 8.1745869 9.2180784 8.2173121 9.0968694 8.28125 8.9882812 L 6.7128906 7.4199219 z M 17.285156 7.421875 L 15.71875 8.9882812 C 15.782688 9.0968694 15.825413 9.2180784 15.869141 9.3378906 L 17.285156 7.921875 C 18.33341 9.12891 18.928459 10.657456 18.988281 12.25 C 18.991371 12.166433 18.999909 12.083887 19 12 C 18.997168 10.317459 18.388401 8.6922303 17.285156 7.421875 z M 16 14 C 16 14.371626 15.893934 14.714197 15.71875 15.011719 L 15.869141 15.162109 C 15.945223 14.953647 16 14.735992 16 14.5 L 16 14 z M 15.011719 15.71875 C 14.714197 15.893935 14.371626 16 14 16 L 10 16 L 8.0058594 17.736328 C 8.1150815 17.8126 8.234648 17.869702 8.3476562 17.939453 L 10 16.5 L 14 16.5 C 14.371626 16.5 14.714197 16.393935 15.011719 16.21875 L 16.300781 17.507812 C 16.394248 17.434709 16.490064 17.365215 16.580078 17.287109 L 15.011719 15.71875 z M 8 16.707031 L 7.421875 17.285156 C 7.5120246 17.363447 7.6091017 17.431313 7.703125 17.503906 L 8 17.207031 L 8 16.707031 z"/>
</svg>
